; G-Code generated by Simplify3D(R) Version 4.1.2
; Jun 24, 2022 at 3:21:45 PM
; Settings Summary
;   processName,Process1
;   applyToModels,cenicero
;   profileName,Codex2020 (modified)
;   profileVersion,2021-10-25 11:41:47
;   baseProfile,Creality CR-10(2)
;   printMaterial,
;   printQuality,Hight Detail
;   printExtruders,
;   extruderName,Primary Extruder
;   extruderToolheadNumber,0
;   extruderDiameter,0.4
;   extruderAutoWidth,0
;   extruderWidth,0.4
;   extrusionMultiplier,1
;   extruderUseRetract,1
;   extruderRetractionDistance,4.1
;   extruderExtraRestartDistance,0
;   extruderRetractionZLift,0.2
;   extruderRetractionSpeed,3600
;   extruderUseCoasting,1
;   extruderCoastingDistance,0.6
;   extruderUseWipe,0
;   extruderWipeDistance,2.4
;   primaryExtruder,0
;   layerHeight,0.2
;   topSolidLayers,5
;   bottomSolidLayers,5
;   perimeterOutlines,4
;   printPerimetersInsideOut,1
;   startPointOption,3
;   startPointOriginX,110
;   startPointOriginY,220
;   sequentialIslands,0
;   spiralVaseMode,0
;   firstLayerHeightPercentage,100
;   firstLayerWidthPercentage,100
;   firstLayerUnderspeed,1
;   useRaft,0
;   raftExtruder,0
;   raftTopLayers,3
;   raftBaseLayers,1
;   raftOffset,3
;   raftSeparationDistance,0.34
;   raftTopInfill,100
;   aboveRaftSpeedMultiplier,0.3
;   useSkirt,0
;   skirtExtruder,0
;   skirtLayers,1
;   skirtOutlines,4
;   skirtOffset,0
;   usePrimePillar,0
;   primePillarExtruder,999
;   primePillarWidth,12
;   primePillarLocation,7
;   primePillarSpeedMultiplier,1
;   useOozeShield,0
;   oozeShieldExtruder,999
;   oozeShieldOffset,2
;   oozeShieldOutlines,1
;   oozeShieldSidewallShape,1
;   oozeShieldSidewallAngle,30
;   oozeShieldSpeedMultiplier,1
;   infillExtruder,0
;   internalInfillPattern,Full Honeycomb
;   externalInfillPattern,Rectilinear
;   infillPercentage,15
;   outlineOverlapPercentage,25
;   infillExtrusionWidthPercentage,100
;   minInfillLength,4
;   infillLayerInterval,1
;   internalInfillAngles,0,120,-120
;   overlapInternalInfillAngles,0
;   externalInfillAngles,45,-45
;   generateSupport,1
;   supportExtruder,0
;   supportInfillPercentage,10
;   supportExtraInflation,1
;   supportBaseLayers,2
;   denseSupportExtruder,0
;   denseSupportLayers,2
;   denseSupportInfillPercentage,75
;   supportLayerInterval,1
;   supportHorizontalPartOffset,0.42
;   supportUpperSeparationLayers,1
;   supportLowerSeparationLayers,1
;   supportType,1
;   supportGridSpacing,5
;   maxOverhangAngle,60
;   supportAngles,0
;   temperatureName,Primary Extruder,Heated Bed
;   temperatureNumber,0,0
;   temperatureSetpointCount,1,1
;   temperatureSetpointLayers,1,1
;   temperatureSetpointTemperatures,230,90
;   temperatureStabilizeAtStartup,1,1
;   temperatureHeatedBed,0,1
;   fanLayers,1,3,6
;   fanSpeeds,0,50,100
;   blipFanToFullPower,0
;   adjustSpeedForCooling,1
;   minSpeedLayerTime,8
;   minCoolingSpeedSlowdown,65
;   increaseFanForCooling,0
;   minFanLayerTime,45
;   maxCoolingFanSpeed,100
;   increaseFanForBridging,1
;   bridgingFanSpeed,100
;   use5D,1
;   relativeEdistances,1
;   allowEaxisZeroing,1
;   independentExtruderAxes,0
;   includeM10123,0
;   stickySupport,1
;   applyToolheadOffsets,0
;   gcodeXoffset,0
;   gcodeYoffset,0
;   gcodeZoffset,0.05
;   overrideMachineDefinition,1
;   machineTypeOverride,0
;   strokeXoverride,205
;   strokeYoverride,205
;   strokeZoverride,200
;   originOffsetXoverride,0
;   originOffsetYoverride,0
;   originOffsetZoverride,0
;   homeXdirOverride,-1
;   homeYdirOverride,-1
;   homeZdirOverride,-1
;   flipXoverride,1
;   flipYoverride,-1
;   flipZoverride,1
;   toolheadOffsets,0,0|0,0|0,0|0,0|0,0|0,0
;   overrideFirmwareConfiguration,1
;   firmwareTypeOverride,RepRap (Marlin/Repetier/Sprinter)
;   GPXconfigOverride,r2
;   baudRateOverride,115200
;   overridePrinterModels,1
;   printerModelsOverride,Artillery_Genius_Bed.stl
;   startingGcode,G28 					; home all axes,M420 S1,G92 E0 					; reset extruder,G1 X20 Y5 Z0.3 F5000.0				; move to start-line position,G1 Z0.3 F1000 					; print height,G1 X200 Y5 F1500.0 E15 				; draw 1st line,G1 X200 Y5.3 Z0.3 F5000.0				; move to side a little,G1 X5.3  Y5.3 Z0.3 F1500.0 E30 				; draw 2nd line,G1 Z3 F3000 					; move z up little to prevent scratching of surface,,
;   layerChangeGcode,
;   retractionGcode,
;   toolChangeGcode,
;   endingGcode,G91 			;Relative positionning,G1 E-2 Z0.2 F2400 		;Retract and raise Z,G1 X5 Y5 F3000 			;Wipe out,G1 Z10 			;Raise Z more,G90 			;Absolute positionning,G1 X0 Y100 			;Present print,M106 S0 			;Turn-off fan,M104 S0 			;Turn-off hotend,M140 S0 			;Turn-off bed,M84 X Y E 			;Disable all steppers but Z
;   exportFileFormat,gcode
;   celebration,0
;   celebrationSong,Star Wars
;   postProcessing,
;   defaultSpeed,4500
;   outlineUnderspeed,0.45
;   solidInfillUnderspeed,0.8
;   supportUnderspeed,0.8
;   rapidXYspeed,6000
;   rapidZspeed,1002
;   minBridgingArea,50
;   bridgingExtraInflation,0
;   bridgingExtrusionMultiplier,1
;   bridgingSpeedMultiplier,1
;   useFixedBridgingAngle,0
;   fixedBridgingAngle,0
;   applyBridgingToPerimeters,1
;   filamentDiameters,1.75|1.75|1.75|1.75|1.75|1.75
;   filamentPricesPerKg,990|46|46|46|46|46
;   filamentDensities,1.25|1.25|1.25|1.25|1.25|1.25
;   useMinPrintHeight,0
;   minPrintHeight,100.8
;   useMaxPrintHeight,0
;   maxPrintHeight,14
;   useDiaphragm,0
;   diaphragmLayerInterval,20
;   robustSlicing,1
;   mergeAllIntoSolid,0
;   onlyRetractWhenCrossingOutline,0
;   retractBetweenLayers,1
;   useRetractionMinTravel,1
;   retractionMinTravel,3
;   retractWhileWiping,1
;   onlyWipeOutlines,0
;   avoidCrossingOutline,1
;   maxMovementDetourFactor,3
;   toolChangeRetractionDistance,0
;   toolChangeExtraRestartDistance,0
;   toolChangeRetractionSpeed,600
;   externalThinWallType,1
;   internalThinWallType,1
;   thinWallAllowedOverlapPercentage,85
;   singleExtrusionMinLength,1
;   singleExtrusionMinPrintingWidthPercentage,50
;   singleExtrusionMaxPrintingWidthPercentage,200
;   singleExtrusionEndpointExtension,0.2
;   horizontalSizeCompensation,0
G90
M83
M106 S0
M140 S90
M190 S90
M104 S230 T0
M109 S230 T0
G28 					; home all axes
M420 S1
G92 E0 					; reset extruder
G1 X20 Y5 Z0.3 F5000.0				; move to start-line position
G1 Z0.3 F1000 					; print height
G1 X200 Y5 F1500.0 E15 				; draw 1st line
G1 X200 Y5.3 Z0.3 F5000.0				; move to side a little
G1 X5.3  Y5.3 Z0.3 F1500.0 E30 				; draw 2nd line
G1 Z3 F3000 					; move z up little to prevent scratching of surface
; process Process1
; layer 1, Z = 0.250
T0
G1 E-4.1000 F3600
; feature inner perimeter
; tool H0.200 W0.400
G1 Z0.250 F1002
G1 X104.258 Y136.052 F6000
G1 E4.1000 F3600
G1 X100.742 Y136.052 E0.1170 F3263
G1 X97.244 Y135.684 E0.1170
G1 X93.804 Y134.953 E0.1170
G1 X90.460 Y133.867 E0.1170
G1 X87.247 Y132.436 E0.1170
G1 X84.201 Y130.678 E0.1170
G1 X81.356 Y128.611 E0.1170
G1 X78.743 Y126.257 E0.1170
G1 X76.389 Y123.644 E0.1170
G1 X74.322 Y120.799 E0.1170
G1 X72.564 Y117.753 E0.1170
G1 X71.133 Y114.540 E0.1170
G1 X70.047 Y111.196 E0.1170
G1 X69.316 Y107.756 E0.1170
G1 X68.948 Y104.258 E0.1170
G1 X68.948 Y100.742 E0.1170
G1 X69.316 Y97.244 E0.1170
G1 X70.047 Y93.804 E0.1170
G1 X71.133 Y90.460 E0.1170
G1 X72.564 Y87.247 E0.1170
G1 X74.322 Y84.201 E0.1170
G1 X76.389 Y81.357 E0.1169
G1 X78.769 Y78.719 E0.1182
G1 X81.356 Y76.389 E0.1158
G1 X84.201 Y74.322 E0.1170
G1 X87.247 Y72.564 E0.1170
G1 X90.460 Y71.133 E0.1170
G1 X93.804 Y70.047 E0.1170
G1 X97.244 Y69.316 E0.1170
G1 X100.742 Y68.948 E0.1170
G1 X104.258 Y68.948 E0.1170
G1 X107.756 Y69.316 E0.1170
G1 X111.196 Y70.047 E0.1170
G1 X114.540 Y71.133 E0.1170
G1 X117.753 Y72.564 E0.1170
G1 X120.799 Y74.322 E0.1170
G1 X123.644 Y76.389 E0.1170
G1 X126.257 Y78.743 E0.1170
G1 X128.611 Y81.356 E0.1170
G1 X130.678 Y84.201 E0.1170
G1 X132.436 Y87.247 E0.1170
G1 X133.867 Y90.460 E0.1170
G1 X134.953 Y93.804 E0.1170
G1 X135.684 Y97.244 E0.1170
G1 X136.052 Y100.742 E0.1170
G1 X136.052 Y104.258 E0.1170
G1 X135.684 Y107.756 E0.1170
G1 X134.953 Y111.196 E0.1170
G1 X133.867 Y114.540 E0.1170
G1 X132.436 Y117.753 E0.1170
G1 X130.678 Y120.799 E0.1170
G1 X128.611 Y123.644 E0.1170
G1 X126.257 Y126.257 E0.1170
G1 X123.644 Y128.611 E0.1170
G1 X120.799 Y130.678 E0.1170
G1 X117.753 Y132.436 E0.1170
G1 X114.540 Y133.867 E0.1170
G1 X111.196 Y134.953 E0.1170
G1 X107.756 Y135.684 E0.1170
G1 X104.855 Y135.989 E0.0970
G1 X104.258 Y136.052 F3263
G1 X104.279 Y136.452 F6000
G1 X100.721 Y136.452 E0.1184 F3263
G1 X97.181 Y136.080 E0.1184
G1 X93.700 Y135.340 E0.1184
G1 X90.316 Y134.240 E0.1184
G1 X87.065 Y132.793 E0.1184
G1 X83.983 Y131.014 E0.1184
G1 X81.104 Y128.922 E0.1184
G1 X78.459 Y126.541 E0.1184
G1 X76.078 Y123.896 E0.1184
G1 X73.986 Y121.017 E0.1184
G1 X72.207 Y117.935 E0.1184
G1 X70.759 Y114.684 E0.1184
G1 X69.660 Y111.300 E0.1184
G1 X68.920 Y107.819 E0.1184
G1 X68.548 Y104.279 E0.1184
G1 X68.548 Y100.721 E0.1184
G1 X68.920 Y97.181 E0.1184
G1 X69.660 Y93.700 E0.1184
G1 X70.759 Y90.316 E0.1184
G1 X72.207 Y87.065 E0.1184
G1 X73.986 Y83.983 E0.1184
G1 X76.078 Y81.104 E0.1183
G1 X78.486 Y78.435 E0.1196
G1 X81.104 Y76.078 E0.1172
G1 X83.983 Y73.986 E0.1184
G1 X87.065 Y72.207 E0.1184
G1 X90.316 Y70.759 E0.1184
G1 X93.700 Y69.660 E0.1184
G1 X97.181 Y68.920 E0.1184
G1 X100.721 Y68.548 E0.1184
G1 X104.279 Y68.548 E0.1184
G1 X107.819 Y68.920 E0.1184
G1 X111.300 Y69.660 E0.1184
G1 X114.684 Y70.759 E0.1184
G1 X117.935 Y72.207 E0.1184
G1 X121.017 Y73.986 E0.1184
G1 X123.896 Y76.078 E0.1184
G1 X126.541 Y78.459 E0.1184
G1 X128.922 Y81.104 E0.1184
G1 X131.014 Y83.983 E0.1184
G1 X132.793 Y87.065 E0.1184
G1 X134.240 Y90.316 E0.1184
G1 X135.340 Y93.700 E0.1184
G1 X136.080 Y97.181 E0.1184
G1 X136.452 Y100.721 E0.1184
G1 X136.452 Y104.279 E0.1184
G1 X136.080 Y107.819 E0.1184
G1 X135.340 Y111.300 E0.1184
G1 X134.240 Y114.684 E0.1184
G1 X132.793 Y117.935 E0.1184
G1 X131.014 Y121.017 E0.1184
G1 X128.922 Y123.896 E0.1184
G1 X126.541 Y126.541 E0.1184
G1 X123.896 Y128.922 E0.1184
G1 X121.017 Y131.014 E0.1184
G1 X117.935 Y132.793 E0.1184
G1 X114.684 Y134.240 E0.1184
G1 X111.300 Y135.340 E0.1184
G1 X107.819 Y136.080 E0.1184
G1 X104.876 Y136.389 E0.0984
G1 X104.279 Y136.452 F3263
G1 X104.300 Y136.852 F6000
G1 X100.700 Y136.852 E0.1198 F3263
G1 X97.119 Y136.476 E0.1198
G1 X93.597 Y135.727 E0.1198
G1 X90.172 Y134.614 E0.1198
G1 X86.883 Y133.150 E0.1198
G1 X83.765 Y131.350 E0.1198
G1 X80.852 Y129.233 E0.1198
G1 X78.176 Y126.824 E0.1198
G1 X75.767 Y124.148 E0.1198
G1 X73.650 Y121.235 E0.1198
G1 X71.850 Y118.117 E0.1198
G1 X70.386 Y114.827 E0.1198
G1 X69.273 Y111.403 E0.1198
G1 X68.524 Y107.881 E0.1198
G1 X68.148 Y104.300 E0.1198
G1 X68.148 Y100.700 E0.1198
G1 X68.524 Y97.119 E0.1198
G1 X69.273 Y93.597 E0.1198
G1 X70.386 Y90.173 E0.1198
G1 X71.850 Y86.883 E0.1198
G1 X73.650 Y83.765 E0.1198
G1 X75.767 Y80.852 E0.1197
G1 X78.203 Y78.152 E0.1210
G1 X80.852 Y75.767 E0.1185
G1 X83.765 Y73.650 E0.1198
G1 X86.883 Y71.850 E0.1198
G1 X90.173 Y70.386 E0.1198
G1 X93.597 Y69.273 E0.1198
G1 X97.119 Y68.524 E0.1198
G1 X100.700 Y68.148 E0.1198
G1 X104.300 Y68.148 E0.1198
G1 X107.881 Y68.524 E0.1198
G1 X111.403 Y69.273 E0.1198
G1 X114.827 Y70.386 E0.1198
G1 X118.117 Y71.850 E0.1198
G1 X121.235 Y73.650 E0.1198
G1 X124.148 Y75.767 E0.1198
G1 X126.824 Y78.176 E0.1198
G1 X129.233 Y80.852 E0.1198
G1 X131.350 Y83.765 E0.1198
G1 X133.150 Y86.883 E0.1198
G1 X134.614 Y90.172 E0.1198
G1 X135.727 Y93.597 E0.1198
G1 X136.476 Y97.119 E0.1198
G1 X136.852 Y100.700 E0.1198
G1 X136.852 Y104.300 E0.1198
G1 X136.476 Y107.881 E0.1198
G1 X135.727 Y111.403 E0.1198
G1 X134.614 Y114.828 E0.1198
G1 X133.150 Y118.117 E0.1198
G1 X131.350 Y121.235 E0.1198
G1 X129.233 Y124.148 E0.1198
G1 X126.824 Y126.824 E0.1198
G1 X124.148 Y129.233 E0.1198
G1 X121.235 Y131.350 E0.1198
G1 X118.117 Y133.150 E0.1198
G1 X114.828 Y134.614 E0.1198
G1 X111.403 Y135.727 E0.1198
G1 X107.881 Y136.476 E0.1198
G1 X104.897 Y136.789 E0.0998
G1 X104.300 Y136.852 F3263
; feature outer perimeter
G1 X104.321 Y137.252 F6000
G1 X100.679 Y137.252 E0.1212 F2025
G1 X97.056 Y136.871 E0.1212
G1 X93.493 Y136.114 E0.1212
G1 X90.029 Y134.988 E0.1212
G1 X86.701 Y133.507 E0.1211
G1 X83.547 Y131.685 E0.1212
G1 X80.600 Y129.544 E0.1211
G1 X77.893 Y127.107 E0.1212
G1 X75.456 Y124.400 E0.1212
G1 X73.315 Y121.453 E0.1211
G1 X71.493 Y118.299 E0.1212
G1 X70.012 Y114.971 E0.1212
G1 X68.886 Y111.507 E0.1211
G1 X68.129 Y107.944 E0.1212
G1 X67.748 Y104.321 E0.1212
G1 X67.748 Y100.679 E0.1212
G1 X68.129 Y97.056 E0.1212
G1 X68.886 Y93.493 E0.1212
G1 X70.012 Y90.029 E0.1211
G1 X71.493 Y86.701 E0.1212
G1 X73.315 Y83.547 E0.1212
G1 X75.455 Y80.600 E0.1211
G1 X77.920 Y77.868 E0.1224
G1 X80.600 Y75.456 E0.1199
G1 X83.547 Y73.315 E0.1211
G1 X86.701 Y71.493 E0.1212
G1 X90.029 Y70.012 E0.1212
G1 X93.493 Y68.886 E0.1211
G1 X97.056 Y68.129 E0.1212
G1 X100.679 Y67.748 E0.1212
G1 X104.321 Y67.748 E0.1212
G1 X107.944 Y68.129 E0.1212
G1 X111.507 Y68.886 E0.1212
G1 X114.971 Y70.012 E0.1211
G1 X118.299 Y71.493 E0.1212
G1 X121.453 Y73.315 E0.1212
G1 X124.400 Y75.456 E0.1211
G1 X127.107 Y77.893 E0.1212
G1 X129.544 Y80.600 E0.1212
G1 X131.685 Y83.547 E0.1211
G1 X133.507 Y86.701 E0.1212
G1 X134.988 Y90.029 E0.1211
G1 X136.114 Y93.493 E0.1212
G1 X136.871 Y97.056 E0.1212
G1 X137.252 Y100.679 E0.1212
G1 X137.252 Y104.321 E0.1212
G1 X136.871 Y107.944 E0.1212
G1 X136.114 Y111.507 E0.1212
G1 X134.988 Y114.971 E0.1212
G1 X133.507 Y118.299 E0.1211
G1 X131.685 Y121.453 E0.1212
G1 X129.544 Y124.400 E0.1211
G1 X127.107 Y127.107 E0.1212
G1 X124.400 Y129.544 E0.1212
G1 X121.453 Y131.685 E0.1211
G1 X118.299 Y133.507 E0.1212
G1 X114.971 Y134.988 E0.1211
G1 X111.507 Y136.114 E0.1212
G1 X107.944 Y136.871 E0.1212
G1 X104.918 Y137.189 E0.1012
G1 X104.321 Y137.252 F2025
G1 E-4.1000 F3600
; feature inner perimeter
G1 Z0.450 F1002
G1 X103.218 Y108.869 F6000
G1 Z0.250 F1002
G1 E4.1000 F3600
G1 X104.617 Y108.549 E0.0477 F3263
G1 X105.910 Y107.927 E0.0477
G1 X107.024 Y107.038 E0.0474
G1 X107.827 Y106.059 E0.0421
G1 X108.419 Y104.952 E0.0418
G1 X108.784 Y103.748 E0.0418
G1 X108.905 Y102.482 E0.0423
G1 X108.784 Y101.250 E0.0412
G1 X108.419 Y100.048 E0.0418
G1 X107.827 Y98.941 E0.0418
G1 X107.024 Y97.962 E0.0421
G1 X105.910 Y97.073 E0.0474
G1 X104.617 Y96.451 E0.0477
G1 X103.218 Y96.131 E0.0477
G1 X101.782 Y96.131 E0.0477
G1 X100.383 Y96.451 E0.0477
G1 X99.090 Y97.073 E0.0477
G1 X97.968 Y97.968 E0.0477
G1 X97.073 Y99.090 E0.0477
G1 X96.451 Y100.383 E0.0477
G1 X96.131 Y101.782 E0.0477
G1 X96.131 Y103.218 E0.0477
G1 X96.451 Y104.617 E0.0477
G1 X97.073 Y105.910 E0.0477
G1 X97.968 Y107.032 E0.0477
G1 X99.090 Y107.927 E0.0477
G1 X100.383 Y108.549 E0.0477
G1 X101.782 Y108.869 E0.0477
G1 X102.618 Y108.869 E0.0278
G1 X103.218 Y108.869 F3263
G1 X103.172 Y108.469 F6000
G1 X104.484 Y108.169 E0.0447 F3263
G1 X105.696 Y107.586 E0.0447
G1 X106.742 Y106.752 E0.0445
G1 X107.493 Y105.836 E0.0394
G1 X108.048 Y104.798 E0.0392
G1 X108.390 Y103.670 E0.0392
G1 X108.503 Y102.482 E0.0397
G1 X108.389 Y101.329 E0.0386
G1 X108.048 Y100.202 E0.0392
G1 X107.493 Y99.164 E0.0392
G1 X106.742 Y98.248 E0.0394
G1 X105.696 Y97.414 E0.0445
G1 X104.484 Y96.831 E0.0447
G1 X103.172 Y96.531 E0.0447
G1 X101.828 Y96.531 E0.0447
G1 X100.516 Y96.831 E0.0447
G1 X99.304 Y97.414 E0.0447
G1 X98.253 Y98.253 E0.0447
G1 X97.414 Y99.304 E0.0447
G1 X96.831 Y100.516 E0.0447
G1 X96.531 Y101.828 E0.0447
G1 X96.531 Y103.172 E0.0447
G1 X96.831 Y104.484 E0.0447
G1 X97.414 Y105.696 E0.0447
G1 X98.253 Y106.747 E0.0447
G1 X99.304 Y107.586 E0.0447
G1 X100.516 Y108.169 E0.0447
G1 X101.828 Y108.469 E0.0447
G1 X102.572 Y108.469 E0.0248
G1 X103.172 Y108.469 F3263
G1 X103.127 Y108.069 F6000
G1 X104.351 Y107.789 E0.0417 F3263
G1 X105.481 Y107.245 E0.0417
G1 X106.459 Y106.465 E0.0416
G1 X107.159 Y105.613 E0.0367
G1 X107.676 Y104.644 E0.0365
G1 X107.996 Y103.592 E0.0366
G1 X108.101 Y102.483 E0.0371
G1 X107.995 Y101.407 E0.0360
G1 X107.676 Y100.356 E0.0365
G1 X107.159 Y99.387 E0.0365
G1 X106.459 Y98.535 E0.0367
G1 X105.481 Y97.755 E0.0416
G1 X104.351 Y97.211 E0.0417
G1 X103.127 Y96.931 E0.0417
G1 X101.873 Y96.931 E0.0417
G1 X100.649 Y97.211 E0.0417
G1 X99.519 Y97.755 E0.0417
